svg/UnitedNations-Flags/flag-rw.svg

<?xml version="1.0" encoding="UTF-8" standalone="no"?>
<svg height="256" id="svg3305" inkscape:output_extension="org.inkscape.output.svg.inkscape" inkscape:version="0.46" sodipodi:docname="Flag_of_Rwanda.svg" sodipodi:version="0.32" version="1.0" width="256" xmlns="http://www.w3.org/2000/svg" xmlns:cc="http://creativecommons.org/ns#" xmlns:dc="http://purl.org/dc/elements/1.1/" xmlns:inkscape="http://www.inkscape.org/namespaces/inkscape" xmlns:rdf="http://www.w3.org/1999/02/22-rdf-syntax-ns#" xmlns:sodipodi="http://sodipodi.sourceforge.net/DTD/sodipodi-0.dtd" xmlns:svg="http://www.w3.org/2000/svg">
  <metadata>
    <rdf:RDF xmlns:cc="http://web.resource.org/cc/" xmlns:dc="http://purl.org/dc/elements/1.1/" xmlns:rdf="http://www.w3.org/1999/02/22-rdf-syntax-ns#">
      <cc:Work rdf:about="">
        <dc:title></dc:title>
        <dc:description></dc:description>
        <dc:subject>
          <rdf:Bag>
            <rdf:li>unsorted</rdf:li>
          </rdf:Bag>
        </dc:subject>
        <dc:publisher>
          <cc:Agent rdf:about="http://www.openclipart.org/">
            <dc:title>Open Clip Art Library, Source: Wikimedia Commons, Source: Wikimedia Commons, Source: Wikimedia Commons, Source: Wikimedia Commons</dc:title>
          </cc:Agent>
        </dc:publisher>
        <dc:creator>
          <cc:Agent>
            <dc:title></dc:title>
          </cc:Agent>
        </dc:creator>
        <dc:rights>
          <cc:Agent>
            <dc:title></dc:title>
          </cc:Agent>
        </dc:rights>
        <dc:date></dc:date>
        <dc:format>image/svg+xml</dc:format>
        <dc:type rdf:resource="http://purl.org/dc/dcmitype/StillImage"/>
        <cc:license rdf:resource="http://en.wikipedia.org/wiki/Public_domain"/>
        <dc:language>en</dc:language>
      </cc:Work>
    </rdf:RDF>
  </metadata>
  <defs id="defs3320">
    <inkscape:perspective id="perspective3324" inkscape:persp3d-origin="300 : 133.33333 : 1" inkscape:vp_x="0 : 200 : 1" inkscape:vp_y="0 : 1000 : 0" inkscape:vp_z="600 : 200 : 1" sodipodi:type="inkscape:persp3d"/>
  </defs>
  <sodipodi:namedview bordercolor="#666666" borderopacity="1.0" gridtolerance="10.0" guidetolerance="10.0" id="base" inkscape:current-layer="svg3305" inkscape:cx="300" inkscape:cy="200" inkscape:pageopacity="0.0" inkscape:pageshadow="2" inkscape:window-height="721" inkscape:window-width="924" inkscape:window-x="132" inkscape:window-y="156" inkscape:zoom="0.93166667" objecttolerance="10.0" pagecolor="#ffffff" showgrid="false"/>
  <desc id="desc3307">flag of Rwanda</desc>
  <!--
	from http://commons.wikimedia.org/wiki/Image:Flag_of_Rwanda.svg
	this file is in the public domain
-->
  <rect height="85.333336" id="rect3309" style="fill:#0084c9" width="256" x="1.110223e-16" y="42.333317"/>
  <rect height="42.666668" id="rect3311" style="fill:#f9d616" width="256" x="1.110223e-16" y="127.66664"/>
  <rect height="42.666668" id="rect3313" style="fill:#007c59" width="256" x="1.110223e-16" y="170.33333"/>
  <path d="M 238.67159,104.47158 L 225.43299,94.319709 L 231.81254,109.73471 L 221.65254,96.502359 L 223.82501,113.04325 L 217.43598,97.632179 L 215.25333,114.17174 L 213.07069,97.632179 L 206.68166,113.04325 L 208.85413,96.502359 L 198.69413,109.73471 L 205.07368,94.319709 L 191.83508,104.47158 L 201.98694,91.232979 L 186.57195,97.612529 L 199.8043,87.452529 L 183.2634,89.624999 L 198.67447,83.235969 L 182.13492,81.053319 L 198.67447,78.870679 L 183.2634,72.481649 L 199.8043,74.654119 L 186.57195,64.494119 L 201.98694,70.873669 L 191.83508,57.635069 L 205.07368,67.786929 L 198.69413,52.371939 L 208.85413,65.604289 L 206.68166,49.063389 L 213.07069,64.474459 L 215.25333,47.934909 L 217.43598,64.474459 L 223.82501,49.063389 L 221.65254,65.604289 L 231.81254,52.371939 L 225.43299,67.786929 L 238.67159,57.635069 L 228.51972,70.873669 L 243.93472,64.494119 L 230.70237,74.654119 L 247.24326,72.481649 L 231.83219,78.870679 L 248.37175,81.053319 L 231.83219,83.235969 L 247.24326,89.624999 L 230.70237,87.452529 L 243.93472,97.612529 L 228.51972,91.232979 L 238.67159,104.47158 z" id="path3315" style="fill:#eaaf0f"/>
  <path d="M 227.30667,81.053319 C 227.30667,87.710189 221.9102,93.106659 215.25333,93.106659 C 208.59646,93.106659 203.2,87.710189 203.2,81.053319 C 203.2,74.396449 208.59646,68.999989 215.25333,68.999989 C 221.9102,68.999989 227.30667,74.396449 227.30667,81.053319 L 227.30667,81.053319 z" id="path3317" style="fill:#eaaf0f;stroke:#0084c9;stroke-width:1.19466662"/>
</svg>

<svg xmlns="http://www.w3.org/2000/svg" viewBox="0 0 256 256"><path fill="#0084c9" d="m0 42.33h256v85.33h-256z"/><path fill="#f9d616" d="m0 127.67h256v42.666h-256z"/><path fill="#007c59" d="m0 170.33h256v42.667h-256z"/><g fill="#eaaf0f"><path d="m238.67 104.47l-13.239-10.152 6.38 15.415-10.16-13.232 2.172 16.541-6.389-15.411-2.183 16.54-2.183-16.54-6.389 15.411 2.172-16.541-10.16 13.232 6.38-15.415-13.239 10.152 10.152-13.239-15.415 6.38 13.232-10.16-16.541 2.172 15.411-6.389-16.54-2.183 16.54-2.183-15.411-6.389 16.541 2.172-13.232-10.16 15.415 6.38-10.152-13.239 13.239 10.152-6.38-15.415 10.16 13.232-2.172-16.541 6.389 15.411 2.183-16.54 2.183 16.54 6.389-15.411-2.172 16.541 10.16-13.232-6.38 15.415 13.239-10.152-10.152 13.239 15.415-6.38-13.232 10.16 16.541-2.172-15.411 6.389 16.54 2.183-16.54 2.183 15.411 6.389-16.541-2.172 13.232 10.16-15.415-6.38 10.152 13.239"/><path d="m227.31 81.05c0 6.657-5.396 12.05-12.05 12.05-6.657 0-12.05-5.396-12.05-12.05 0-6.657 5.396-12.05 12.05-12.05 6.657 0 12.05 5.396 12.05 12.05z" stroke="#0084c9" stroke-width="1.195"/></g></svg>
